X: 2
T: CANADIAN BREAKDOWN
T: McArthur's Reel
S: "Community Dances Manual 6", EFDSS, Jack Hamilton ed., 1981 p.13
R: reel
Z: 2010 John Chambers <jc:trillian.mit.edu>
M: 4/4
L: 1/8
K: D
"A"|: A2 |\
"D"d3d d2Bc | "D"d2A2 F2D2 | "A7"[e3A3][eA] [e2A2]de | "A7"f2e2 edBc |
"D"d3d d2Bc | "D"d2A2 F2D2 | "Em"EFGA "A7"BABc | "D"d2ec "A7"A2 :|
"B"|: A2 |\
"D"d2fd fdfa | "D"d2ed "A7"edcA | "D"d2fd fdfa | "Em"gfed "A7"cABc |
"D"d2fd fdfa | "D"d2ed "A7"edcA | "Em"gfed "A7"cABc | "D"d2f2 d2 :|

%%sep 2 1 500
%%sep 1 1 500

